src/shared/_assets/icons/magnifying-glass.svg

<svg width="27" height="27" viewBox="0 0 27 27" fill="none" xmlns="http://www.w3.org/2000/svg">
<path d="M24.9 27L15.45 17.55C14.7 18.15 13.8375 18.625 12.8625 18.975C11.8875 19.325 10.85 19.5 9.75 19.5C7.025 19.5 4.71875 18.5563 2.83125 16.6688C0.94375 14.7813 0 12.475 0 9.75C0 7.025 0.94375 4.71875 2.83125 2.83125C4.71875 0.94375 7.025 0 9.75 0C12.475 0 14.7813 0.94375 16.6688 2.83125C18.5563 4.71875 19.5 7.025 19.5 9.75C19.5 10.85 19.325 11.8875 18.975 12.8625C18.625 13.8375 18.15 14.7 17.55 15.45L27 24.9L24.9 27ZM9.75 16.5C11.625 16.5 13.2188 15.8438 14.5312 14.5312C15.8438 13.2188 16.5 11.625 16.5 9.75C16.5 7.875 15.8438 6.28125 14.5312 4.96875C13.2188 3.65625 11.625 3 9.75 3C7.875 3 6.28125 3.65625 4.96875 4.96875C3.65625 6.28125 3 7.875 3 9.75C3 11.625 3.65625 13.2188 4.96875 14.5312C6.28125 15.8438 7.875 16.5 9.75 16.5Z" fill="black"/>
</svg>

<svg xmlns="http://www.w3.org/2000/svg" fill="none" viewBox="0 0 27 27"><path fill="currentColor" d="m24.9 27-9.45-9.45a9.14 9.14 0 0 1-5.7 1.95q-4.087 0-6.919-2.831Q.001 13.837 0 9.75t2.831-6.919Q5.663.001 9.75 0t6.919 2.831q2.83 2.832 2.831 6.919a9.14 9.14 0 0 1-1.95 5.7L27 24.9zM9.75 16.5q2.813 0 4.781-1.969 1.97-1.968 1.969-4.781t-1.969-4.781Q12.563 2.999 9.75 3T4.969 4.969Q2.999 6.937 3 9.75t1.969 4.781q1.968 1.97 4.781 1.969"/></svg>
